X:565
T: WIR REISEN DURCH JERUSALEM
N: E1868
O: Europa, Mitteleuropa, Deutschland, Schleswig
R: Kinder - Lied, Abzaehl - Reim, Plumpsack - Spiel
M: 2/4
L: 1/8
K: C
C | GGAA | GGE
F | G2A2 | G2z
C | GGGG | cGE
F | G2G2 | C2z

